X:1
T:Banks of the Spey, The
T:Banks of Spey [1], The
M:C|
L:1/8
R:Reel
S:The Buttery Manuscript (c. 1784-1820, No. 823)
N:John Buttery (1784-1854) joined  the 34th Regiment in Lincoln,
N:Lincolnshire, England, in 1797 and served as a fifer until discharged in
N:1814. His large ms. contains marches, duty calls, dance tunes and airs.
N:EASMES identifies this as the Fife MS. and suggests a date of 1780, see
N: https://www.cdss.org/elibrary/Easmes/Index.htm
Z:AK/Fiddler’s Companion
K:Ador
A2 AB ABde|dcBA G2G2|A2 AB ABcd|ecde g2g2|
agec dega|eggB G2 GB|AEAB cdeg|edcB A2A2:|
|:AEAc AEAc|BcdB G2 GB|AEAc AEAc|ecde g2g2|
agec dega|eggB G2 GB|AEAB cdeg| edcB A2:|

